X: 3250
M: 6/8
L: 1/8
K: D
uA |\
dfa afa | f2d d2A | dfa afa | g2e e2A |\
dfa afa | bgb a2f | gfg eag | f2d d2 :|
|: B |\


